lib/flags/m/TUR.svg

<svg xmlns="http://www.w3.org/2000/svg" fill="none" viewBox="0 0 20 15"><mask id="TUR_svg__a" width="20" height="15" x="0" y="0" mask-type="alpha" maskUnits="userSpaceOnUse"><path fill="#fff" d="M0 0H20V15H0z"/></mask><g mask="url(#TUR_svg__a)"><path fill="#E31D1C" fill-rule="evenodd" d="M0 0V15H20V0H0Z" clip-rule="evenodd"/><mask id="TUR_svg__b" width="20" height="15" x="0" y="0" mask-type="alpha" maskUnits="userSpaceOnUse"><path fill="#fff" fill-rule="evenodd" d="M0 0V15H20V0H0Z" clip-rule="evenodd"/></mask><g mask="url(#TUR_svg__b)"><path fill="#F7FCFF" fill-rule="evenodd" d="M10.0159 10.0709C8.67757 9.7412 7.62937 8.621 7.64153 6.97891C7.65292 5.44178 8.58358 4.1425 10.0548 3.79077C11.526 3.43904 12.8213 4.18567 12.8213 4.18567C12.4147 3.22579 11.0021 2.55145 9.84394 2.55339C7.68818 2.557 5.39013 4.30527 5.37032 6.97891C5.34978 9.75078 7.83119 11.3294 10.0136 11.3257C11.7631 11.3228 12.593 10.1258 12.7649 9.61663C12.7649 9.61663 11.3542 10.4006 10.0159 10.0709ZM13.0646 6.45407L11.7312 6.94386L13.2357 7.47461L13.21 9.06047L14.2014 7.87072L15.8389 7.98971L14.5412 6.87424L15.3932 5.68436L14.006 6.15122L13.0145 5.04898L13.0646 6.45407Z" clip-rule="evenodd"/></g></g></svg>

<svg xmlns="http://www.w3.org/2000/svg" fill="none" viewBox="0 0 20 15"><mask id="TUR_svg__a" width="20" height="15" x="0" y="0" maskUnits="userSpaceOnUse"><path fill="#fff" d="M0 0h20v15H0z"/></mask><g mask="url(#TUR_svg__a)"><path fill="#E31D1C" fill-rule="evenodd" d="M0 0v15h20V0H0z" clip-rule="evenodd"/><mask id="TUR_svg__b" width="20" height="15" x="0" y="0" maskUnits="userSpaceOnUse"><path fill="#fff" fill-rule="evenodd" d="M0 0v15h20V0H0z" clip-rule="evenodd"/></mask><g mask="url(#TUR_svg__b)"><path fill="#F7FCFF" fill-rule="evenodd" d="M10.016 10.071c-1.338-.33-2.387-1.45-2.374-3.092.01-1.537.942-2.836 2.413-3.188 1.471-.352 2.766.395 2.766.395-.406-.96-1.819-1.634-2.977-1.633C7.688 2.557 5.39 4.305 5.37 6.98c-.02 2.772 2.461 4.35 4.644 4.347 1.75-.003 2.579-1.2 2.75-1.71 0 0-1.41.785-2.748.455zm3.049-3.617l-1.334.49 1.505.53-.026 1.587.991-1.19 1.638.119-1.298-1.116.852-1.19-1.387.467-.992-1.102.05 1.405z" clip-rule="evenodd"/></g></g></svg>
